Apricity Icons/16/panel/gitter-indicator-disconnected.svg

<svg xmlns="http://www.w3.org/2000/svg" width="16" height="16"><defs><style id="current-color-scheme" type="text/css"></style></defs><path d="M2 1v9h2V1zm3 2v12h2V3zm3 0v12h2V3zm3 0v7h2V3z" opacity=".3" fill="currentColor" color="#dfdfdf"/></svg>

<svg xmlns="http://www.w3.org/2000/svg" width="16" height="16" version="1.1">
 <defs>
  <style id="current-color-scheme" type="text/css">
   .ColorScheme-Text { color:#dfdfdf; } .ColorScheme-Highlight { color:#4285f4; }
  </style>
 </defs>
 <path style="opacity:0.3;fill:currentColor" class="ColorScheme-Text" d="M 2,1 V 10 H 4 V 1 Z M 5,3 V 15 H 7 V 3 Z M 8,3 V 15 H 10 V 3 Z M 11,3 V 10 H 13 V 3 Z"/>
</svg>
